priv/static/svgs/icons_new/sport-speedway.svg

<svg width="32" height="32" viewBox="0 0 32 32" fill="none" xmlns="http://www.w3.org/2000/svg">
<path d="M6.80375 20.2103C6.73907 20.2414 6.66619 20.2582 6.59004 20.2582C6.36896 20.2582 6.18063 20.1128 6.11103 19.9103M9.17344 20.8272C8.76403 21.7887 7.82893 22.4603 6.74152 22.4603C5.27582 22.4603 4.08852 21.2407 4.08852 19.7371C4.08852 18.2335 5.27664 17.014 6.74152 17.014C7.75933 17.014 8.64366 17.6024 9.0891 18.4664M10.5785 21.129C10.0168 22.7998 8.47089 24 6.65227 24C4.35874 24 2.5 22.0921 2.5 19.738C2.5 17.3838 4.35874 15.476 6.65227 15.476C8.59617 15.476 10.2281 16.8468 10.6801 18.6983M25.3477 19.7371L22.4745 12.9781M18.3091 17.5284L19.3859 17.7856L18.6129 19.975C18.463 20.4003 18.0618 20.6768 17.6213 20.6575L13.2946 20.4566L11.9083 20.1565M10.2412 17.5948C10.2412 17.5948 9.26679 15.1986 7.69791 14.0278C6.44511 13.0924 4.70674 13.0445 4.05741 13.063C3.90019 13.0672 3.76509 12.9504 3.74707 12.7907C3.69958 12.3629 3.74052 11.5846 4.60684 11.393C5.81952 11.1249 8.24407 11.1492 9.14806 11.393C10.0512 11.6367 10.6441 13.6379 13.0211 12.6865C15.3982 11.735 13.442 10.6534 17.2946 9.92888C18.9822 9.61202 19.9574 10.1726 20.4806 11.3199C21.0039 12.4671 21.455 12.9789 21.455 12.9789C21.455 12.9789 20.673 13.9656 20.2538 14.9011C19.6954 16.1458 19.6954 16.5677 19.6954 16.5677M14.1593 11.9973C14.1593 11.9973 14.852 12.4906 15.0895 12.9781C15.3269 13.4664 14.183 14.7221 11.9026 14.5599C10.3755 14.4506 10.2723 14.1438 9.32165 13.5673C7.67253 12.5679 8.1106 11.2425 8.1106 11.2425M21.7408 12.6671L24.8613 12.7772C24.8613 12.7772 25.6818 10.6727 23.8804 9.3002C22.0798 7.92772 21.7408 8.69591 21.7408 8.69591C21.7408 8.69591 20.7132 9.97594 19.132 9.99527M19.2982 8C19.6905 8.05463 19.8149 8.2118 20.0294 8.48075M20.0294 8.48075C20.2432 8.75054 19.8509 9.4641 19.8509 9.4641M20.0294 8.48075L20.8139 9.31785M16.9449 16.5887C16.1752 15.2759 13.6352 16.2072 13.3183 17.82M25.8166 19.5381C25.9239 19.804 25.8009 20.1088 25.5419 20.2189C25.2828 20.3291 24.9858 20.2028 24.8785 19.9369C24.7712 19.671 24.8943 19.3662 25.1533 19.2561C25.4123 19.146 25.7093 19.2722 25.8166 19.5381ZM28.0015 19.7371C28.0015 21.2416 26.8134 22.4603 25.3485 22.4603C23.8837 22.4603 22.6955 21.2407 22.6955 19.7371C22.6955 18.2335 23.8837 17.014 25.3485 17.014C26.8134 17.014 28.0015 18.2335 28.0015 19.7371ZM29.5 19.7371C29.5 22.0913 27.6413 23.9992 25.3477 23.9992C23.0542 23.9992 21.1955 22.0913 21.1955 19.7371C21.1955 17.383 23.0542 15.4751 25.3477 15.4751C27.6413 15.4751 29.5 17.383 29.5 19.7371ZM11.7552 20.1448C11.9157 19.4001 11.1689 19.0059 11.1689 19.0059L6.45657 17.8763L5.95381 19.7607L10.789 20.9096C10.789 20.9096 11.5947 20.8894 11.7552 20.1448Z" stroke="black" stroke-linecap="round"/>
</svg>

<svg width="32" height="32" viewBox="0 0 32 32" fill="none" xmlns="http://www.w3.org/2000/svg">
  <symbol id="item" viewBox="0 0 32 32" stroke-width="1" fill="none">
    <path d="M6.804 20.21a.493.493 0 0 1-.214.048.51.51 0 0 1-.479-.348m3.062.917c-.409.962-1.344 1.633-2.431 1.633-1.466 0-2.653-1.22-2.653-2.723s1.188-2.723 2.653-2.723c1.017 0 1.902.588 2.347 1.452m1.49 2.663C10.017 22.799 8.47 24 6.652 24 4.36 24 2.5 22.092 2.5 19.738c0-2.354 1.859-4.262 4.152-4.262 1.944 0 3.576 1.37 4.028 3.222m14.668 1.04-2.873-6.76m-4.166 4.55 1.077.258-.773 2.189a1.01 1.01 0 0 1-.992.682l-4.326-.2-1.387-.3m-1.667-2.562s-.974-2.396-2.543-3.567c-1.253-.936-2.991-.984-3.64-.965a.305.305 0 0 1-.31-.272c-.048-.428-.007-1.206.859-1.398 1.213-.268 3.637-.244 4.541 0 .903.244 1.496 2.245 3.873 1.293 2.377-.951.421-2.033 4.274-2.757 1.687-.317 2.662.244 3.186 1.39.523 1.148.974 1.66.974 1.66s-.782.987-1.201 1.922c-.559 1.245-.559 1.667-.559 1.667m-5.536-4.57s.693.493.93.98c.238.488-.906 1.744-3.186 1.582-1.527-.11-1.63-.416-2.581-.993-1.65-1-1.211-2.325-1.211-2.325m13.63 1.425 3.12.11s.82-2.104-.98-3.477c-1.801-1.372-2.14-.604-2.14-.604s-1.028 1.28-2.609 1.3M19.298 8c.393.055.517.212.731.48m0 0c.214.27-.178.984-.178.984m.178-.983.785.837m-3.87 7.27c-.769-1.312-3.309-.38-3.626 1.232m12.499 1.718a.526.526 0 0 1-.275.68.503.503 0 0 1-.664-.281.526.526 0 0 1 .275-.68.503.503 0 0 1 .664.281Zm2.184.2c0 1.504-1.188 2.722-2.652 2.722-1.465 0-2.654-1.22-2.654-2.723s1.189-2.723 2.654-2.723c1.464 0 2.652 1.22 2.652 2.723Zm1.499 0c0 2.353-1.859 4.261-4.152 4.261-2.294 0-4.152-1.908-4.152-4.262 0-2.354 1.858-4.262 4.152-4.262 2.293 0 4.152 1.908 4.152 4.262Zm-17.745.407c.16-.745-.586-1.14-.586-1.14l-4.712-1.129-.503 1.885 4.835 1.149s.806-.02.966-.765Z" stroke="currentColor" stroke-linecap="round"/>
  </symbol>
</svg>
